packages/core/src/svgs/zil.svg

<svg width="24" height="24" viewBox="0 0 24 24" fill="none" xmlns="http://www.w3.org/2000/svg">
<g clip-path="url(#clip0_31_21211)">
<path d="M0 0H24V24H0V0Z" fill="url(#paint0_linear_31_21211)"/>
<path opacity="0.8" d="M6.85693 5.64815L14.9955 9.57815L17.1384 8.6353L8.98693 4.71387L6.85693 5.64815Z" fill="url(#paint1_linear_31_21211)"/>
<path d="M6.85693 5.64844V7.76987L12.5226 10.4999L6.85693 13.2727V15.3642L14.9998 19.2856V17.1856L9.48408 14.507L14.9998 11.6784V9.57844L6.85693 5.65701V5.64844Z" fill="url(#paint2_linear_31_21211)"/>
<path opacity="0.8" d="M15 9.56574L17.1429 8.63574V10.7357L15 11.67V9.56574ZM15 19.2686L17.1429 18.3343V11.7986L15 12.7415V19.2686Z" fill="url(#paint3_linear_31_21211)"/>
</g>
<defs>
<linearGradient id="paint0_linear_31_21211" x1="4.46571" y1="4.16143" x2="29.2071" y2="32.58" gradientUnits="userSpaceOnUse">
<stop stop-color="#1A1E21"/>
<stop offset="1" stop-color="#06060A"/>
</linearGradient>
<linearGradient id="paint1_linear_31_21211" x1="15.4284" y1="9.42815" x2="10.0712" y2="3.42815" gradientUnits="userSpaceOnUse">
<stop stop-color="#60AAAC"/>
<stop offset="1" stop-color="#347181"/>
</linearGradient>
<linearGradient id="paint2_linear_31_21211" x1="10.9284" y1="5.64844" x2="10.9284" y2="19.2856" gradientUnits="userSpaceOnUse">
<stop stop-color="#5AC1C1"/>
<stop offset="1" stop-color="#216B79"/>
</linearGradient>
<linearGradient id="paint3_linear_31_21211" x1="13.7143" y1="17.3572" x2="18.4286" y2="13.5" gradientUnits="userSpaceOnUse">
<stop stop-color="#5AC1C1"/>
<stop offset="1" stop-color="#216B79"/>
</linearGradient>
<clipPath id="clip0_31_21211">
<rect width="24" height="24" fill="white"/>
</clipPath>
</defs>
</svg>

<svg xmlns="http://www.w3.org/2000/svg" width="24" height="24" fill="none" viewBox="0 0 24 24"><g clip-path="url(#a)"><path fill="url(#b)" d="M0 0h24v24H0z"/><path fill="url(#c)" d="m6.857 5.648 8.139 3.93 2.142-.943-8.151-3.921z" opacity=".8"/><path fill="url(#d)" d="M6.857 5.648V7.77l5.666 2.73-5.666 2.773v2.091L15 19.286v-2.1l-5.516-2.679L15 11.678v-2.1L6.857 5.657z"/><path fill="url(#e)" d="m15 9.566 2.143-.93v2.1L15 11.67zm0 9.703 2.143-.935V11.8L15 12.742z" opacity=".8"/></g><defs><linearGradient id="b" x1="4.466" x2="29.207" y1="4.161" y2="32.58" gradientUnits="userSpaceOnUse"><stop stop-color="#1A1E21"/><stop offset="1" stop-color="#06060A"/></linearGradient><linearGradient id="c" x1="15.428" x2="10.071" y1="9.428" y2="3.428" gradientUnits="userSpaceOnUse"><stop stop-color="#60AAAC"/><stop offset="1" stop-color="#347181"/></linearGradient><linearGradient id="d" x1="10.928" x2="10.928" y1="5.648" y2="19.286" gradientUnits="userSpaceOnUse"><stop stop-color="#5AC1C1"/><stop offset="1" stop-color="#216B79"/></linearGradient><linearGradient id="e" x1="13.714" x2="18.429" y1="17.357" y2="13.5" gradientUnits="userSpaceOnUse"><stop stop-color="#5AC1C1"/><stop offset="1" stop-color="#216B79"/></linearGradient><clipPath id="a"><path fill="#fff" d="M0 0h24v24H0z"/></clipPath></defs></svg>
